packages/core/src/svgs/bel.svg

<svg width="24" height="24" viewBox="0 0 24 24" fill="none" xmlns="http://www.w3.org/2000/svg">
<g clip-path="url(#clip0_31_6948)">
<path d="M0 0H24V24H0V0Z" fill="#F0F3FA"/>
<path fill-rule="evenodd" clip-rule="evenodd" d="M7.86636 4.71436C7.38238 4.71436 6.91822 4.90662 6.57599 5.24884C6.23376 5.59107 6.0415 6.05523 6.0415 6.53921V12.0138C6.0415 13.0218 6.64279 13.7144 7.71422 13.7144H8.14279V17.0324C8.14279 17.272 8.18999 17.5093 8.2817 17.7307C8.37341 17.9521 8.50782 18.1533 8.67728 18.3227C8.84673 18.4922 9.0479 18.6266 9.2693 18.7183C9.49071 18.81 9.728 18.8572 9.96765 18.8572H14.2534C16.7734 18.8572 18.8155 16.8146 18.8155 14.2951C18.8155 12.5611 17.8482 11.0529 16.4236 10.2811C16.4965 9.95793 16.5346 9.6215 16.5346 9.2765C16.5342 6.75693 14.4921 4.71436 11.9725 4.71436H7.86636ZM16.4236 10.2811C16.0491 10.0779 15.2142 9.85721 14.1428 9.85721H10.1476C9.13965 9.85721 8.14279 10.5498 8.14279 11.5578V13.7144H11.9725C14.1471 13.7144 15.9659 12.3172 16.4236 10.2811Z" fill="#00B2FA"/>
<path d="M6 6.53921C6 5.53121 6.85843 4.71436 7.86643 4.71436H11.9721C14.4921 4.71436 16.5347 6.75693 16.5347 9.2765C16.5347 9.62278 16.4961 9.96007 16.4233 10.2836C16.4233 10.2836 15.5319 9.85721 14.1429 9.85721H12.918L12.852 9.85764C12.6369 9.86064 11.3923 9.87736 10.1477 9.86664C9.00643 9.85721 8.14286 10.6458 8.14286 11.5578V13.7144H7.5C6.64286 13.7144 6 13.0218 6 12.0138V6.53921Z" fill="#63CAAB"/>
</g>
<defs>
<clipPath id="clip0_31_6948">
<rect width="24" height="24" fill="white"/>
</clipPath>
</defs>
</svg>

<svg xmlns="http://www.w3.org/2000/svg" width="24" height="24" fill="none" viewBox="0 0 24 24"><g clip-path="url(#a)"><path fill="#F0F3FA" d="M0 0h24v24H0z"/><path fill="#00B2FA" fill-rule="evenodd" d="M7.866 4.714A1.825 1.825 0 0 0 6.042 6.54v5.475c0 1.008.6 1.7 1.672 1.7h.429v3.318a1.825 1.825 0 0 0 1.825 1.825h4.285a4.562 4.562 0 0 0 2.17-8.576q.111-.486.112-1.005a4.56 4.56 0 0 0-4.562-4.562zm8.558 5.567c-.375-.203-1.21-.424-2.281-.424h-3.995c-1.008 0-2.005.693-2.005 1.7v2.157h3.83c2.174 0 3.993-1.397 4.45-3.433" clip-rule="evenodd"/><path fill="#63CAAB" d="M6 6.54c0-1.009.858-1.826 1.866-1.826h4.106a4.562 4.562 0 0 1 4.451 5.57s-.891-.427-2.28-.427h-1.291c-.215.004-1.46.02-2.704.01-1.142-.01-2.005.779-2.005 1.69v2.157H7.5c-.857 0-1.5-.692-1.5-1.7z"/></g><defs><clipPath id="a"><path fill="#fff" d="M0 0h24v24H0z"/></clipPath></defs></svg>
